X:1
T:SCOTS WA HAE WI' WALLACE BLED
M:C
L:1/8
Q:80
C:Traditional
S:Slow March
K:HP
|: {g}A3/2B/2{g}A3/2G/2{g}A3/2B/2{Gdc}d2 | \
{g}B3/2c/2{g}B3/2A/2{g}B3/2c/2{Gdc}d3/2e/2 | \
{g}f3/2a/2e3/2f/2{Gdc}d3/2e/2{g}f3/2e/2 |
{g}d3/2B/2{g}B{G}A/2{g}A4 :: \
e | \
{g}f3/2{e}f/2{g}fe/2{g}f3/2g/2a3/2f/2 | \
{g}e3/2{A}e/2{g}e3/2d/2{g}e3/2f/2{gf}g2 |
a3/2f/2{g}e3/2f/2{Gdc}d3/2e/2{g}f3/2e/2 | \
{g}d3/2B/2{g}B3/2{G}A/2{g}A3 :|
